X:1
T:Cushman, 11.10.11.10
T:Herbert Barclay Turner, 1907
T:Cushman, 11.10.11.10
T:Public Domain
C:Herbert Barclay Turner, 1907
Z:Public Domain
%%score ( 1 2 ) ( 3 4 )
L:1/8
M:2/2
K:Bb
V:1 treble 
V:2 treble 
V:3 bass 
V:4 bass 
V:1
 [B,D]2 [CE]2 [DF]4 | [^CG]4 [DF]4 | [CF]2 [DG]2 [EA]2 [FB]2 | [Ad]4 [Ac]4 | [GB]4 [^FB]2 [FA]2 | %5
 G2 [FG]2 [EG]2 [DG]2 | C4 C4 | D8 | [DF]4 [B,D]2 [DF]2 | A2 G2 [DF]4 | [Fd]2 [Fd]2 [Ge]2 [Fd]2 | %11
 [EG]4 [Ec]4 | [^CB]4 [CA]2 [CG]2 | [DF]2 [DG]2 [EA]2 [FB]2 | [=EB]4 [_Ec]4 | [DB]8 |] %16
V:2
 x8 | x8 | x8 | x8 | x8 | G2 x6 | F4 x4 | x8 | x8 | ^C4 x4 | x8 | x8 | x8 | x8 | x8 | x8 |] %16
V:3
 [B,,F,]2 [B,,F,]2 [B,,F,]4 | [B,,=E,]4 (F,2 G,2) | [F,A,]2 [F,B,]2 [F,C]2 [F,D]2 | [F,F]4 [F,E]4 | %4
 [G,D]4 [D,D]2 [D,C]2 | [E,B,]2 [D,=B,]2 [C,C]2 [_B,,G,]2 | [A,,A,]4 [F,A,]4 | [B,,B,]8 | %8
 [B,,B,]4 [B,,F,]2 [B,,F,]2 | [B,,=E,]4 [B,,F,]4 | [=B,,G,]2 [G,,G,]2 [A,,G,]2 [B,,G,]2 | %11
 [C,C]4 [C,G,]4 | [=E,G,]4 [E,A,]2 [E,B,]2 | [F,B,]2 [F,B,]2 [F,C]2 [F,D]2 | C2 B,2 [F,A,]4 | %15
 [B,,B,]8 |] %16
V:4
 x8 | x4 B,,4 | x8 | x8 | x8 | x8 | x8 | x8 | x8 | x8 | x8 | x8 | x8 | x8 | G,4 x4 | x8 |] %16

